X:1
T:Pas de Trois, II. Andante sostenuto
T:Pas de Trois, II. Andante sostenuto
T:Swan Lake. Piano Arrangement for 3 hands
T:Hinci
C:Hinci
%%score { ( 1 4 ) | 2 | 3 }
L:1/8
Q:1/4=70
M:3/4
K:Bb
V:1 treble nm="Piano" snm="Pno."
V:4 treble 
V:2 bass 
V:3 bass 
V:1
|:"^Andante sostenuto."!p! G2 A4 | (B3/2A/4G/4) ^F4 | (Gd) (B3 A) | G3 (D=E^F) | G2 A4 | %5
 (B3/2A/4G/4) ^F4 | (Gd) (B3 A) | G6 :|!mp! (D2 E3 D) | (E=E F3 E) | (F^F G3 D) | (F4 E2) | %12
 z (G, DC B,A,) | (G,F, G,A, B,F) | (E3 G, =B,D) | C6 | D2 (E3 D) | (E=E F3 E) | (F^F G3 D) | %19
 (F4 E2) | z (G, DC B,A,) | (DC B,A, G,E) | (D3 A, B,C) | D6 | ([Bd]2 [ce]3 [Bd]) | %25
 ([ce][^c=e] [df]3 [ce]) | ([^cf][d^f] [eg]3 [=Bd]) | ([df]4 [ce]2) | z (G [Bd][Ac] [GB][^FA]) | %29
 ([EG][DF] [EG][FA] [GB][df]) | ([ce]3 [EG] [G=B][Bd]) | [Gc]6 | [Bd]2 ([ce]3 [Bd]) | %33
 ([ce][^c=e] [df]3 [ce]) | ([^cf][d^f] [eg]3 [=Bd]) | ([df]4 [ce]2) | z (G [Bd][Ac] [GB][^FA]) | %37
 ([Bd][Ac] [GB][^FA] [EG][ce]) | ([Bd]3 [^FA] [GB][Ac]) | [D^FAd]6 |!p! G2 A4 | (B3/2A/4G/4) ^F4 | %42
 (Gd) (B3 A) | G3 (D=E^F) | G2 A4 | (B3/2A/4G/4) ^F4 | (Gd) (B3 A) | G4- G z |!mp! (^f2 a3 d) | %49
 (g3/2f/4e/4) d4 | (^f2 a3 d) | ([Gdg]4 [DBd]2) | (^f2 a3 d) | (g3/2f/4e/4) d4 | (c2 [Ee]2 ^F2 | %55
 [DG]6) | %56
[Q:1/4=73] ^f/4g/4[Q:1/4=76]f/4g/4[Q:1/4=79]f/4g/4[Q:1/4=82]f/4g/4[Q:1/4=85] f/4g/4[Q:1/4=88]f/4g/4[Q:1/4=85]f/4g/4[Q:1/4=82]f/4g/4[Q:1/4=79] f/4g/4[Q:1/4=76]f/4g/4[Q:1/4=73]f/4g/4[Q:1/4=70](=e/4f/4) | %57
[Q:1/4=72] g/4a/4[Q:1/4=74]g/4a/4[Q:1/4=76]g/4a/4[Q:1/4=78]g/4a/4[Q:1/4=80] g/4a/4[Q:1/4=82]g/4a/4[Q:1/4=84]g/4a/4[Q:1/4=86](^f/4g/4[Q:1/4=70] d') z | %58
[Q:1/4=72] ^F/4G/4[Q:1/4=74]F/4G/4[Q:1/4=76]F/4G/4[Q:1/4=78]F/4G/4[Q:1/4=80] F/4G/4[Q:1/4=82]F/4G/4[Q:1/4=84]F/4G/4[Q:1/4=86]F/4G/4[Q:1/4=88] F/4G/4F/4G/4F/4G/4[Q:1/4=74](=E/4F/4) | %59
 G4 (5:4:5(B/A/B/A/^F/) | G4 (5:4:5(B/A/B/A/^F/) |!mp! (G3 B, C^C) | %62
[Q:1/4=70] (DE[Q:1/4=69] DB,[Q:1/4=68] A,G,) |[Q:1/4=67] z6[Q:1/4=65][Q:1/4=63] | %64
[Q:1/4=50] z2 [d^fd']7/2 g/ | !fermata![Gdg]6 |] %66
V:2
|:!pp! G,,.[D,G,] .[^F,A,].[D,F,] .[A,,D,] z | G,,.[B,,D,] .[D,^F,].[F,A,] .[A,D] z | %2
 G,,.[B,,D,] z .[C,D,] z .[C,D,] | G,,.[B,,D,] z .[B,,D,] z .[C,D,] | %4
 G,,.[D,G,] .[^F,A,].[D,F,] .[A,,D,] z | G,,.[B,,D,] .[D,^F,].[F,A,] .[A,D] z | %6
 G,,.[B,,D,] z .[C,D,] z .[C,D,] | G,,.[G,,B,,D,] z .[C,D,^F,] .[B,,D,G,] z :| %8
!pp! !>!.[B,,,F,,B,,].[B,,F,] .[F,,B,,].[B,,F,] .[F,,B,,].[B,,F,] | %9
 !>!.[B,,,G,,C,].[C,G,] .[G,,C,].[C,G,] !>!.[G,,A,,C,].[C,G,] | %10
 !>!.[_A,,C,D,].[D,,C,] !>!.[G,,=B,,D,].[D,,B,,] .[B,,D,].[D,,B,,] | %11
 !>!.[C,,G,,C,].[C,G,] .[G,,C,].[C,G,] .[G,,C,].[C,G,] | %12
 !>!.[G,,C,G,].[G,C] .[C,G,].G, .[C,G,].[G,C] | %13
 !>!.[C,F,A,].[A,C] !>!.[C,E,F,].[F,C] !>!.[C,D,F,].[G,,B,,] | %14
 !>!.[C,,G,,C,].[C,G,] .[G,,C,].[C,E,] !>!.[C,,E,,G,,].[G,,C,] | %15
 !arpeggio!!>!.[C,,A,,F,].[A,,C,] .[F,,A,,].[A,,C,] .[F,,A,,].[A,,C,] | %16
!pp! !>!.[B,,,F,,B,,].[B,,F,] .[F,,B,,].[B,,F,] .[F,,B,,].[B,,F,] | %17
 !>!.[B,,,G,,C,].[C,G,] .[G,,C,].[C,G,] !>!.[G,,A,,C,].[C,G,] | %18
 !>!.[_A,,C,D,].[D,,C,] !>!.[G,,=B,,D,].[D,,B,,] .[B,,D,].[D,,B,,] | %19
 !>!.[C,,G,,C,].[C,G,] .[G,,C,].[C,G,] .[G,,C,].[C,G,] | %20
 !>!.[G,,C,G,].[G,C] .[C,G,].G, .[C,G,].[G,C] | %21
 !>!.[A,,D,^F,].[F,D] .[D,F,].[F,D] !>!.[C,E,G,]!>!.[C,G,C] | %22
 !>!.[A,,D,^F,].[F,D] .[A,,F,].[F,D] .[D,G,].[G,B,] | %23
 !>!.[D,^F,A,].[D,,D,] .[F,A,].[D,,D,] .[F,A,].[D,,D,] | %24
!p! !>!.[B,,,F,,B,,].[F,,B,,F,] .[B,,,F,,B,,].[F,,B,,F,] .[B,,,F,,B,,].[F,,B,,F,] | %25
 !>!.[C,,G,,C,].[G,,C,G,] !>!.[B,,,F,,B,,].[F,,C,F,] !>!.[A,,,F,,A,,].[C,C] | %26
 !>!.[D,,_A,,C,].[C,D,] !>!.[D,,G,,=B,,].[B,,D,] !>!.[D,,G,,B,,].[B,,D,] | %27
 .[C,,C,].[C,G,] !>!.[C,,C,].[C,G,] .[C,,C,].[C,G,] | %28
 !>!.[C,E,G,].[G,C] !>!.[G,CE].[G,C] .[C,G,].[G,C] | %29
 !>!.[C,F,A,].[A,C] !>!.[C,E,F,].[F,C] !>!.[B,,D,F,].[F,,B,,] | %30
 !>!.[G,,C,].[C,G,] !>!.[G,,C,].[C,E,] !>!.[C,,E,,G,,].[G,,C,] | %31
 !>!.[C,,F,,A,,].[A,,C,] !>!.[F,,A,,F,].[A,,C,] !>!.[F,,A,,].[A,,C,] | %32
 !>!.[B,,,F,,B,,].[F,,B,,F,] .[B,,,F,,B,,].[F,,B,,F,] .[B,,,F,,B,,].[F,,B,,F,] | %33
 !>!.[C,,G,,C,].[G,,C,G,] !>!.[B,,,F,,B,,].[F,,C,F,] !>!.[A,,,F,,A,,].[C,C] | %34
 !>!.[D,,_A,,C,].[C,D,] !>!.[D,,G,,=B,,].[B,,D,] !>!.[D,,G,,B,,].[B,,D,] | %35
 .[C,,C,].[C,G,] !>!.[C,,C,].[C,G,] .[C,,C,].[C,G,] | %36
 !>!.[C,E,G,].[G,C] !>!.[G,CE].[G,C] .[C,G,].[G,C] | %37
 !>!.[A,,D,^F,].[F,D] !>!.[^F,,D,F,].[F,D] !>!.[G,,C,E,G,]!>!.[C,G,C] | %38
 !>!.[A,,D,^F,].[F,D] !>!.[^F,,A,,D,F,].[F,D] !>!.[G,,D,G,].[G,B,] | %39
 .[^F,,A,,D,].[D,,D,] .[^F,A,D].[D,,D,] .[F,,A,,].[D,,D,] | %40
 G,,!pp!.[D,G,] .[^F,A,].[D,F,] .[A,,D,] z | G,,.[B,,D,] .[D,^F,].[F,A,] .[A,D] z | %42
 G,,.[B,,D,] z .[C,D,] z .[C,D,] | G,,.[B,,D,] z .[B,,D,] z .[C,D,] | %44
 G,,.[D,G,] .[^F,A,].[D,F,] .[A,,D,] z | G,,.[B,,D,] .[D,^F,].[F,A,] .[A,D] z | %46
 G,,.[B,,D,] z .[C,D,] z .[C,D,] | G,,.[G,,B,,D,] z .[C,D,^F,] .[B,,D,G,] z | %48
!p! z .[^F,,A,,] .[F,,A,,D,].[A,,D,^F,] .[D,F,A,] z | %49
 z .[D,,G,,B,,] .[G,,B,,D,].[B,,D,G,] .[D,G,B,] z | %50
 z .[^F,,A,,] .[F,,A,,D,].[A,,D,^F,] .[D,F,A,] z | z .[D,,G,,D,] .[G,,D,G,].[B,,D,G,] .[D,G,B,] z | %52
 z .[^F,,A,,] .[F,,A,,D,].[A,,D,^F,] .[D,F,A,] z | %53
 z .[D,,G,,B,,] .[G,,B,,D,].[B,,D,G,] .[D,G,B,] z | %54
 z .[^F,,A,,C,] .[A,,C,E,].[C,E,^F,] .[E,F,A,] z | %55
 z .[D,,G,,B,,] .[G,,B,,D,].[B,,D,G,] .[D,G,B,] z |[K:treble] z2 [G,CEA] z z2 | %57
 z2 [DGB] z [dgb] z |[K:bass] z2 [G,A,CE] z z2 | z2 [G,A,D] z [G,B,D] z | z2 [G,A,D] z [G,B,D] z | %61
 z2 [G,A,D] z z2 | z6 | (E,D, B,,A,, G,,!fermata![D,,D,]) | G,,6- | !fermata![G,,G,]6 |] %66
V:3
|: z6 | z6 | z6 | z6 | z6 | z6 | z6 | z6 :| z6 | z6 | z6 | z6 | z6 | z6 | z6 | z6 | z6 | z6 | z6 | %19
 z6 | z6 | z6 | z6 | z6 | z6 | z6 | z6 | z6 | z6 | z6 | z6 | z6 | z6 | z6 | z6 | z6 | z6 | z6 | %38
 z6 | z6 | z6 | z6 | z6 | z6 | z6 | z6 | z6 | z6 | G,,6- | G,,6 | G,,6- | G,,6 | G,,6- | G,,6 | %54
 G,,6- | G,,6 | z6 | z6 | z6 | z6 | z6 | z6 | z6 | z6 | z6 | z6 |] %66
V:4
|: x6 | G,2 A,4 | (B,3/2A,/4G,/4) ^F,4 | (G,D) (B,3 A,) | G,3 (D,=E,^F,) | G,2 A,4 | %6
 (B,3/2A,/4G,/4) ^F,4 | (G,D) B,A, G,2 :| x6 | x6 | x6 | x6 | x6 | x6 | x6 | z c GF =E_E | D z z4 | %17
 x6 | x6 | x6 | x6 | x6 | x6 | z2 [^fad']2 [fad']2 | x6 | x6 | x6 | x6 | x6 | x6 | x6 | %31
 z c' [eg][df] [^c=e][=c_e] | x6 | x6 | x6 | x6 | x6 | x6 | x6 | x6 | x6 | G,2 A,4 | %42
 (B,3/2A,/4G,/4) ^F,4 | (G,D) (B,3 A,) | G,3 (D,=E,^F,) | G,2 A,4 | (B,3/2A,/4G,/4) ^F,4 | %47
 (G,D) B,A, G, x | x6 | (G2 B3 D) | (ED/C/) c2 z2 | (cB/A/) (BA/G/) (G^F/G/) | x6 | (G2 B3 D) | %54
 (ED/C/) C3 D/C/ | x6 | x6 | x6 | x6 | x6 | x6 | x6 | x6 | x6 | x6 | x6 |] %66

